src/epub/images/titlepage.svg

<?xml version="1.0" encoding="utf-8"?>
<svg xmlns="http://www.w3.org/2000/svg" xmlns:svg="http://www.w3.org/2000/svg" version="1.1" viewBox="0 0 1400 340">
	<title>The titlepage for the Standard Ebooks edition of The Big Time, by Fritz Leiber</title>
	<g>
		<path d="m 361.29678,68.245613 18.33918,0 0,61.754387 17.59064,0 0,-61.754387 18.33918,0 0,-15.438597 -54.269,0 0,15.438597 z"/>
		<path d="m 444.49122,99.029239 24.88889,0 0,30.970761 17.59065,0 0,-77.192984 -17.59065,0 0,30.783626 -24.88889,0 0,-30.783626 -17.59064,0 0,77.192984 17.59064,0 0,-30.970761 z"/>
		<path d="m 547.33626,52.807016 -44.16375,0 0,77.192984 44.16375,0 0,-15.4386 -26.5731,0 0,-15.532161 25.45029,0 0,-15.438597 -25.45029,0 0,-15.345029 26.5731,0 0,-15.438597 z"/>
		<path d="m 593.03363,52.807016 0,77.192984 29.28655,0 c 16,0 25.26316,-8.79532 25.26316,-21.52047 0,-12.444443 -6.83041,-17.777776 -16.46784,-19.461987 6.54971,-3.368421 9.63743,-9.450292 9.63743,-16.561404 0,-14.690058 -10.47953,-19.649123 -23.76608,-19.649123 l -23.95322,0 z m 17.59064,30.222223 0,-16.654971 1.40351,0 c 7.67252,0 11.69591,2.339181 11.69591,7.859649 0,6.456141 -4.11696,8.795322 -11.69591,8.795322 l -1.40351,0 z m 0,33.403511 0,-18.245616 5.52047,0 c 8.32749,0 12.91228,2.526316 12.91228,9.637426 0,6.08187 -4.58479,8.60819 -12.91228,8.60819 l -5.52047,0 z"/>
		<path d="m 677.94152,52.807016 -17.59065,0 0,77.192984 17.59065,0 0,-77.192984 z"/>
		<path d="m 764.02631,86.771929 -35.64912,0 0,13.567251 17.77778,0 c 0,9.45029 -8.32749,14.87719 -16.74854,14.87719 -10.8538,0 -19.64912,-10.66666 -19.64912,-23.766078 0,-13.380117 8.79532,-24.140352 19.64912,-24.140352 6.83041,0 12.72515,2.713451 17.21637,9.918129 L 758.13158,64.59649 c -6.73685,-8.140351 -16.18714,-13.192983 -29.75439,-13.192983 -21.7076,0 -37.61404,17.871346 -37.61404,40.046785 0,22.081868 16.84211,39.953218 37.61404,39.953218 15.15789,0 31.4386,-8.32749 35.64912,-27.88304 l 0,-16.748541 z"/>
		<path d="m 797.86111,68.245613 18.33918,0 0,61.754387 17.59064,0 0,-61.754387 18.33919,0 0,-15.438597 -54.26901,0 0,15.438597 z"/>
		<path d="m 881.05556,52.807016 -17.59064,0 0,77.192984 17.59064,0 0,-77.192984 z"/>
		<path d="m 961.15208,130 17.59065,0 -6.92398,-77.192984 -18.71345,0 -17.12281,44.538013 -17.12281,-44.538013 -18.71345,0 L 893.22226,130 l 17.59064,0 3.64912,-45.754387 0.46784,0 15.81287,45.286547 10.47953,0 15.81286,-45.286547 0.46784,0 L 961.15208,130 Z"/>
		<path d="m 1034.9532,52.807016 -44.16373,0 0,77.192984 44.16373,0 0,-15.4386 -26.5731,0 0,-15.532161 25.4503,0 0,-15.438597 -25.4503,0 0,-15.345029 26.5731,0 0,-15.438597 z"/>
	</g>
	<g>
		<path d="m 478.6875,232.10526 -33.47368,0 0,57.89474 13.19298,0 0,-23.22807 18.73684,0 0,-11.57895 -18.73684,0 0,-11.50877 20.2807,0 0,-11.57895 z"/>
		<path d="m 489.96162,232.10526 0,57.89474 13.19299,0 0,-22.87719 17.68421,22.87719 16.77193,0 -19.92983,-23.92982 c 7.08772,-2.24562 11.85965,-8.07018 11.85965,-16.77193 0,-11.36842 -8.14035,-17.19299 -18.87719,-17.19299 l -20.70176,0 z m 13.19299,25.68421 0,-15.15789 1.54386,0 c 4.98245,0 10.94736,0.35088 10.94736,7.57895 0,7.22807 -5.96491,7.57894 -10.94736,7.57894 l -1.54386,0 z"/>
		<path d="m 558.45614,232.10526 -13.19298,0 0,57.89474 13.19298,0 0,-57.89474 z"/>
		<path d="m 564.8432,243.68421 13.75438,0 0,46.31579 13.19299,0 0,-46.31579 13.75438,0 0,-11.57895 -40.70175,0 0,11.57895 z"/>
		<path d="m 663.92763,232.10526 -47.64913,0 0,11.57895 24.56141,0 L 612.20833,290 l 49.82456,0 0,-11.57895 -26.80702,0 28.70176,-46.31579 z"/>
		<path d="m 711.67983,232.10526 -13.19299,0 0,57.89474 33.12281,0 0,-11.57895 -19.92982,0 0,-46.31579 z"/>
		<path d="m 776.22038,232.10526 -33.1228,0 0,57.89474 33.1228,0 0,-11.57895 -19.92982,0 0,-11.64912 19.08772,0 0,-11.57895 -19.08772,0 0,-11.50877 19.92982,0 0,-11.57895 z"/>
		<path d="m 801.9978,232.10526 -13.19298,0 0,57.89474 13.19298,0 0,-57.89474 z"/>
		<path d="m 815.46052,232.10526 0,57.89474 21.96491,0 c 12,0 18.94737,-6.59649 18.94737,-16.14035 0,-9.33333 -5.1228,-13.33333 -12.35087,-14.59649 4.91228,-2.52632 7.22807,-7.08772 7.22807,-12.42105 0,-11.01755 -7.85965,-14.73685 -17.82457,-14.73685 l -17.96491,0 z m 13.19298,22.66667 0,-12.49123 1.05264,0 c 5.75438,0 8.77193,1.75439 8.77193,5.89474 0,4.8421 -3.08772,6.59649 -8.77193,6.59649 l -1.05264,0 z m 0,25.05263 0,-13.68421 4.14036,0 c 6.24561,0 9.68421,1.89474 9.68421,7.22807 0,4.5614 -3.4386,6.45614 -9.68421,6.45614 l -4.14036,0 z"/>
		<path d="m 900.32127,232.10526 -33.1228,0 0,57.89474 33.1228,0 0,-11.57895 -19.92982,0 0,-11.64912 19.08772,0 0,-11.57895 -19.08772,0 0,-11.50877 19.92982,0 0,-11.57895 z"/>
		<path d="m 912.90571,232.10526 0,57.89474 13.19298,0 0,-22.87719 17.68422,22.87719 16.77192,0 -19.92982,-23.92982 c 7.08772,-2.24562 11.85965,-8.07018 11.85965,-16.77193 0,-11.36842 -8.14035,-17.19299 -18.87719,-17.19299 l -20.70176,0 z m 13.19298,25.68421 0,-15.15789 1.54386,0 c 4.98246,0 10.94737,0.35088 10.94737,7.57895 0,7.22807 -5.96491,7.57894 -10.94737,7.57894 l -1.54386,0 z"/>
	</g>
</svg>

<?xml version="1.0" encoding="utf-8"?>
<svg xmlns="http://www.w3.org/2000/svg" xmlns:svg="http://www.w3.org/2000/svg" version="1.1" viewBox="0 0 1400 340">
	<title>The titlepage for the Standard Ebooks edition of The Big Time, by Fritz Leiber</title>
	<g aria-label="THE BIG TIME">
		<path d="m 361.29678,68.245613 h 18.33918 V 130 H 397.2266 V 68.245613 h 18.33918 V 52.807016 h -54.269 z"/>
		<path d="m 444.49122,99.029239 h 24.88889 V 130 h 17.59065 V 52.807016 H 469.38011 V 83.590642 H 444.49122 V 52.807016 H 426.90058 V 130 h 17.59064 z"/>
		<path d="M 547.33626,52.807016 H 503.17251 V 130 h 44.16375 v -15.4386 h -26.5731 V 99.029239 h 25.45029 V 83.590642 H 520.76316 V 68.245613 h 26.5731 z"/>
		<path d="M 593.03363,52.807016 V 130 h 29.28655 c 16,0 25.26316,-8.79532 25.26316,-21.52047 0,-12.444443 -6.83041,-17.777776 -16.46784,-19.461987 6.54971,-3.368421 9.63743,-9.450292 9.63743,-16.561404 0,-14.690058 -10.47953,-19.649123 -23.76608,-19.649123 z m 17.59064,30.222223 V 66.374268 h 1.40351 c 7.67252,0 11.69591,2.339181 11.69591,7.859649 0,6.456141 -4.11696,8.795322 -11.69591,8.795322 z m 0,33.403511 V 98.187134 h 5.52047 c 8.32749,0 12.91228,2.526316 12.91228,9.637426 0,6.08187 -4.58479,8.60819 -12.91228,8.60819 z"/>
		<path d="M 677.94152,52.807016 H 660.35087 V 130 h 17.59065 z"/>
		<path d="m 764.02631,86.771929 h -35.64912 v 13.567251 h 17.77778 c 0,9.45029 -8.32749,14.87719 -16.74854,14.87719 -10.8538,0 -19.64912,-10.66666 -19.64912,-23.766078 0,-13.380117 8.79532,-24.140352 19.64912,-24.140352 6.83041,0 12.72515,2.713451 17.21637,9.918129 L 758.13158,64.59649 c -6.73685,-8.140351 -16.18714,-13.192983 -29.75439,-13.192983 -21.7076,0 -37.61404,17.871346 -37.61404,40.046785 0,22.081868 16.84211,39.953218 37.61404,39.953218 15.15789,0 31.4386,-8.32749 35.64912,-27.88304 z"/>
		<path d="m 797.86111,68.245613 h 18.33918 V 130 h 17.59064 V 68.245613 h 18.33919 V 52.807016 h -54.26901 z"/>
		<path d="M 881.05556,52.807016 H 863.46492 V 130 h 17.59064 z"/>
		<path d="m 961.15208,130 h 17.59065 L 971.81875,52.807016 H 953.1053 L 935.98249,97.345029 918.85968,52.807016 H 900.14623 L 893.22226,130 h 17.59064 l 3.64912,-45.754387 h 0.46784 l 15.81287,45.286547 h 10.47953 l 15.81286,-45.286547 h 0.46784 z"/>
		<path d="M 1034.9532,52.807016 H 990.78947 V 130 h 44.16373 v -15.4386 h -26.5731 V 99.029239 h 25.4503 V 83.590642 h -25.4503 V 68.245613 h 26.5731 z"/>
	</g>
	<g aria-label="FRITZ LEIBER">
		<path d="M 478.6875,232.10526 H 445.21382 V 290 h 13.19298 v -23.22807 h 18.73684 V 255.19298 H 458.4068 v -11.50877 h 20.2807 z"/>
		<path d="M 489.96162,232.10526 V 290 h 13.19299 V 267.12281 L 520.83882,290 h 16.77193 l -19.92983,-23.92982 c 7.08772,-2.24562 11.85965,-8.07018 11.85965,-16.77193 0,-11.36842 -8.14035,-17.19299 -18.87719,-17.19299 z m 13.19299,25.68421 v -15.15789 h 1.54386 c 4.98245,0 10.94736,0.35088 10.94736,7.57895 0,7.22807 -5.96491,7.57894 -10.94736,7.57894 z"/>
		<path d="M 558.45614,232.10526 H 545.26316 V 290 h 13.19298 z"/>
		<path d="m 564.8432,243.68421 h 13.75438 V 290 h 13.19299 v -46.31579 h 13.75438 V 232.10526 H 564.8432 Z"/>
		<path d="M 663.92763,232.10526 H 616.2785 v 11.57895 h 24.56141 L 612.20833,290 h 49.82456 v -11.57895 h -26.80702 z"/>
		<path d="M 711.67983,232.10526 H 698.48684 V 290 h 33.12281 v -11.57895 h -19.92982 z"/>
		<path d="m 776.22038,232.10526 h -33.1228 V 290 h 33.1228 v -11.57895 h -19.92982 v -11.64912 h 19.08772 v -11.57895 h -19.08772 v -11.50877 h 19.92982 z"/>
		<path d="M 801.9978,232.10526 H 788.80482 V 290 h 13.19298 z"/>
		<path d="M 815.46052,232.10526 V 290 h 21.96491 c 12,0 18.94737,-6.59649 18.94737,-16.14035 0,-9.33333 -5.1228,-13.33333 -12.35087,-14.59649 4.91228,-2.52632 7.22807,-7.08772 7.22807,-12.42105 0,-11.01755 -7.85965,-14.73685 -17.82457,-14.73685 z m 13.19298,22.66667 V 242.2807 h 1.05264 c 5.75438,0 8.77193,1.75439 8.77193,5.89474 0,4.8421 -3.08772,6.59649 -8.77193,6.59649 z m 0,25.05263 v -13.68421 h 4.14036 c 6.24561,0 9.68421,1.89474 9.68421,7.22807 0,4.5614 -3.4386,6.45614 -9.68421,6.45614 z"/>
		<path d="m 900.32127,232.10526 h -33.1228 V 290 h 33.1228 v -11.57895 h -19.92982 v -11.64912 h 19.08772 v -11.57895 h -19.08772 v -11.50877 h 19.92982 z"/>
		<path d="M 912.90571,232.10526 V 290 h 13.19298 V 267.12281 L 943.78291,290 h 16.77192 l -19.92982,-23.92982 c 7.08772,-2.24562 11.85965,-8.07018 11.85965,-16.77193 0,-11.36842 -8.14035,-17.19299 -18.87719,-17.19299 z m 13.19298,25.68421 v -15.15789 h 1.54386 c 4.98246,0 10.94737,0.35088 10.94737,7.57895 0,7.22807 -5.96491,7.57894 -10.94737,7.57894 z"/>
	</g>
</svg>
